!!! OTL:Ching-, Lio-, Lio-, Ching-
!!! YEC: Copyright 2001, Chia-wei Lee
!!For Voice Only
**kern	**silbe
*clefG2	*LXinhua
*G:	*ping-ying
*M3/4	*
=7	=7
4dd	Ching-
4ee	Lio-
q8dd	Lio-
4dd	|
=8	=8
4dd	Ching-
(4.ee;	Lai/
8b)	|
=9	=9
4dd	Ching-
4ee	Lio-
Q16ee	Lio-
Q16gg	|
4dd	|
*M4/4	*
=10	=10
(8dd	Ching-
8b)	|
2.b	Ia,
*M3/4	*
=11	=11
4ee	Ching-
4dd	Lio-
8ee	Lio-
8gg	De
=12	=12
(4ee	Guo^
8dd	|
8b)	|
(8dd	Shu\
8b)	|
=13	=13
4a	Shan\
(8g	A-
8e)	Io
4g	Guo^
=14	=14
4.a	Zi
8b	Mo
8a	Ai\
8g	|
*M4/4	*
=15	=15
(8g	Ching-
8e)	|
2.e	Ia.
*-	*-
